X: 24469
T: Lucky Thirteen
R: jig
M: 6/8
K: Gmajor
d|:dBG dBG|cAF D3|cAF DEF|GDB GG/A/B|
dBG dBG|cAF DEF|1 GG/G/G G2 z:|2 GG/G/G G2 A||
|:EAA ABc|BAG AFD|DD/D/D AFD|EFG ABc|
[1 BAG AFD|GG/G/G G2 A:|2 B z d AFD|GGG G3||

